packages/foundations/assets/icons/functional/images/accessibility/ear.svg

<svg xmlns="http://www.w3.org/2000/svg" width="32" height="32" fill="none"><path fill="#1A1C1F" fill-rule="evenodd" d="M13.067 2.114A10.3 10.3 0 0 0 8.24 4.191c-.627.493-.924.788-1.014 1.002-.256.613.15 1.302.799 1.356.402.033.584-.048 1.068-.473 4.108-3.61 10.504-2.327 12.909 2.591.572 1.168.769 1.99.809 3.36.07 2.455-.471 3.748-3.148 7.513-1.345 1.892-1.848 2.876-2.277 4.459-.217.801-.403 1.235-.764 1.777-.67 1.007-1.689 1.73-2.915 2.068-.373.103-.586.126-1.2.127-.821.003-1.222-.071-1.947-.357-.697-.275-1.194-.136-1.468.41-.157.313-.165.514-.031.803.144.31.352.478.828.668 1.303.521 2.826.64 4.151.324 1.297-.308 2.323-.869 3.288-1.795 1.029-.988 1.623-2.034 2.001-3.529.34-1.34.78-2.141 2.515-4.578.425-.597.955-1.379 1.179-1.738 1.677-2.698 2.194-5.339 1.583-8.093a10.16 10.16 0 0 0-2.765-5.049 10.27 10.27 0 0 0-6.053-2.954c-.629-.078-2.115-.061-2.721.031m.255 4.015c-.866.188-1.478.441-2.177.899-1.09.714-1.398 1.203-1.142 1.813.168.403.479.614.904.614.316 0 .485-.079.871-.411 2.076-1.784 5.312-1.167 6.564 1.249.328.633.439 1.055.471 1.793.049 1.137-.185 1.832-1.092 3.248a5 5 0 0 0-.331.576c-.246.648.386 1.405 1.08 1.294.382-.062.558-.22 1.005-.904.96-1.467 1.378-2.677 1.378-3.989.001-1.01-.21-1.871-.694-2.844-.819-1.643-2.236-2.787-4.05-3.267-.707-.187-2.089-.222-2.787-.071"/></svg>

<svg width="32" height="32" viewBox="0 0 32 32" fill="none" xmlns="http://www.w3.org/2000/svg"><path d="M13.067 2.114 C 11.290 2.385,9.620 3.103,8.240 4.191 C 7.613 4.684,7.316 4.979,7.226 5.193 C 6.970 5.806,7.376 6.495,8.025 6.549 C 8.427 6.582,8.609 6.501,9.093 6.076 C 13.201 2.466,19.597 3.749,22.002 8.667 C 22.574 9.835,22.771 10.657,22.811 12.027 C 22.881 14.482,22.340 15.775,19.663 19.540 C 18.318 21.432,17.815 22.416,17.386 23.999 C 17.169 24.800,16.983 25.234,16.622 25.776 C 15.952 26.783,14.933 27.506,13.707 27.844 C 13.334 27.947,13.121 27.970,12.507 27.971 C 11.686 27.974,11.285 27.900,10.560 27.614 C 9.863 27.339,9.366 27.478,9.092 28.024 C 8.935 28.337,8.927 28.538,9.061 28.827 C 9.205 29.137,9.413 29.305,9.889 29.495 C 11.192 30.016,12.715 30.135,14.040 29.819 C 15.337 29.511,16.363 28.950,17.328 28.024 C 18.357 27.036,18.951 25.990,19.329 24.495 C 19.669 23.155,20.109 22.354,21.844 19.917 C 22.269 19.320,22.799 18.538,23.023 18.179 C 24.700 15.481,25.217 12.840,24.606 10.086 C 24.176 8.145,23.245 6.446,21.841 5.037 C 20.207 3.397,18.102 2.369,15.788 2.083 C 15.159 2.005,13.673 2.022,13.067 2.114 M13.322 6.129 C 12.456 6.317,11.844 6.570,11.145 7.028 C 10.055 7.742,9.747 8.231,10.003 8.841 C 10.171 9.244,10.482 9.455,10.907 9.455 C 11.223 9.455,11.392 9.376,11.778 9.044 C 13.854 7.260,17.090 7.877,18.342 10.293 C 18.670 10.926,18.781 11.348,18.813 12.086 C 18.862 13.223,18.628 13.918,17.721 15.334 C 17.570 15.568,17.422 15.828,17.390 15.910 C 17.144 16.558,17.776 17.315,18.470 17.204 C 18.852 17.142,19.028 16.984,19.475 16.300 C 20.435 14.833,20.853 13.623,20.853 12.311 C 20.854 11.301,20.643 10.440,20.159 9.467 C 19.340 7.824,17.923 6.680,16.109 6.200 C 15.402 6.013,14.020 5.978,13.322 6.129 " fill="#1A1C1F" stroke="none" fill-rule="evenodd"></path></svg>
